X:1
T:Pargoletta
T:Pargoletta
T:Giovanni Ghizzolo   
C:Giovanni Ghizzolo
%%score [ 1 2 ] { 3 | 4 }
L:1/8
Q:1/4=120
M:4/4
K:F
V:1 treble nm="Soprano" snm="S"
V:2 bass nm="Bass" snm="B"
V:3 treble nm="MusicXML Part"
V:4 bass 
V:1
"^Source: Madrigali et Arie---Libro secondo---Venetia---A.Raverij---1609.\nEditor: André Vierendeels (09/12/09)\nContinuo :André Vierendeels" Bc d3 dcB | %1
w: Par- go- let- ta vez- zo-|
w: Oc- chi bel- li sia- te|
w: Oc- chi va- ghi che pre-|
w: Lu- ci bel- le ch'a le|
 A2"^ARIA" A4 GF | G2 B2 A3 A |[M:2/4] G2 G2 | FG A2- |[M:4/4] AAGF G2 G2- | G2 GA B2 B2 | %7
w: set- ta ch'el mio|cor ar- di'e con-|su- mi|e me pren-|* di l'al- m'a- cen- di|_ del bel fo- co'e|
w: quel- li ch'el mio|cor vol- ge- te|mi- ra|deh' sa- na-|* te im- pia- ga- te|_ rin- fres- ca- te|
w: sa- ghi se- te'al|mio gra- ve do-|lo- re|dal mio pet-|* to per di- let- to|_ in- vo- la- to'ha-|
w: stel- le voi to-|glie- te'il suo splen-|do- re|eh' pie- to-|* si non sdeg- no si|_ ri- vol- ge- te-|
 A3 A G2 G2 :: z2 EF G2 B2 | A3 A G4 | G8 :| %11
w: de suoi lum- mi,|del bel fo- co'e|de suoi lum-|mi.|
w: la fe- ri- ta,|rin- fres- ca- te|la fe- ri-|ta.|
w: ve- re'l co- re,|in- vo- la- to'ha-|ve- te'il- co-|re.|
w: vi'al mio co- re,|ri- vol- ge- te-|vi'al mio co-|re.|
V:2
 G,A, B,3 B,A,G, | F,2 F,4 _E,D, | C,2 G,,2 D,3 D, |[M:2/4] G,,2 G,,2 | D,E, F,2- | %5
w: Par- go- let- ta vez- zo-|set- ta ch'el mio|cor ar- di'e con-|su- mi|e me pren-|
w: Oc- chi bel- li sia- te|quel- li ch'el mio|cor vol- ge- te|mi- ra|deh' sa- na-|
w: O- chi va- ghi che pre-|sa- ghi se- te'al|mio gra- ve do-|lo- re|dal mio pet-|
w: Lu- ci bel- le ch'ia le|stel- le voi to-|glie- te'il suo splen-|do- re|eh pie- to-|
[M:4/4] F,F,E,D, C,2 C,2- | C,2 B,,A,, G,,2 G,,2 | D,3 D, G,,2 G,,2 :: z2 C,D, _E,2 C,2 | %9
w: * di l'al- m'a- cen- di|_ del bel fo- co'e|da soi lum- mi|del bel fo- co'e|
w: * te im- pia- ga- te|_ rin- fres- ca- te|la fe- ri- ta,|rin- fres- ca- te|
w: * to per di- let- to|_ in vo- la- to'ha-|e- re'l co- re|in vo- la- to'ha|
w: * si non sdeg- no si|_ ri- vol- ge- te-|vi'al mio co- re,|ri- vol- ge- te-|
 D,3 D, G,,4 | G,,8 :| %11
w: de suoi lum-|mi.|
w: la fe- ri-|ta.|
w: ve- te'il co-|re.|
w: vi'al mio co-|re.|
V:3
 [GBd]8 | [FAc]8 | [_EGc]2 [DGB]2 [D^FA]4 |[M:2/4] [DG=B]4 | [D-FA-]4 |[M:4/4] [DFA]4 [E-Gc-]4 | %6
 [EGc]4 [DGB]4 | [D^FA]4 [DG=B]4 :: [C_EGc]4 [CGc]4 | [D^FA]4 [DG=B]4 | [DG=B]8 :| %11
V:4
 G,A, B,3 B, A,G, | F,2 F,4 _E,D, | C,2 G,,2 D,3 D, |[M:2/4] G,,2 G,,2 | D,E, F,2- | %5
[M:4/4] F,F,E,D, C,2 C,2- | C,2 B,,A,, G,,2 G,,2 | D,3 D, G,,2 G,,2 :: %8
 z2"^Notes: Original keys: Ut1st, Fa 4rth\n            Dedication: All Illustre Sig. Pietro  Francesco Varotti" C,D, _E,2 C,2 | %9
 D,3 D, G,,4 | G,,8 :| %11

